svg/boy_1015y_negative.svg

<svg width="48" height="48" viewBox="0 0 48 48" fill="none" xmlns="http://www.w3.org/2000/svg">
<path fill-rule="evenodd" clip-rule="evenodd" d="M0 0V47.9994H47.9994V0H0ZM20.0117 2.99996C20.5857 3.65405 21.9087 3.28146 22.2707 4.03515C24.6087 2.31697 24.4407 3.91445 26.8787 3.12886C24.8117 4.16895 24.4467 3.79075 23.3027 4.82024C23.3497 4.81944 23.3987 4.82094 23.4467 4.82024C23.6027 4.81674 23.7557 4.80924 23.9117 4.80854C24.2057 4.80714 24.4977 4.81564 24.7887 4.82414C25.1867 4.83094 25.4147 4.84744 25.6637 4.86714C26.5427 4.92614 27.3557 5.02844 27.9707 5.18544C29.8626 5.66943 31.3126 6.53462 32.3006 7.7694C32.9046 8.52469 33.1926 9.04489 33.5176 9.97057C34.2836 12.8408 33.9196 14.2298 34.2266 17.0778C34.7146 16.9718 34.7586 16.9768 34.9746 17.1618C35.1816 17.3408 35.1986 17.4008 35.2296 18.0508C35.2576 18.6218 35.2286 18.8808 35.0656 19.4898C34.7776 20.5727 34.5336 21.0667 34.0136 21.6167C33.5986 22.0547 33.5196 22.1977 33.1816 23.1167C31.9366 25.9667 30.4326 28.6116 27.6537 30.0756C24.7237 31.4646 22.4107 31.1586 20.2657 30.0716C17.7708 28.6286 15.7748 26.0287 14.6838 22.8047C14.4848 22.2167 14.3848 22.0407 14.0698 21.7317C13.3278 21.0027 12.8648 19.8508 12.7728 18.5038C12.6908 17.2798 12.9478 16.8928 13.7048 17.0998L13.9198 17.1578C13.9098 15.4668 13.9178 13.7738 14.0038 12.0858C14.3948 8.57929 16.2998 6.29882 19.6228 5.31043C18.6698 4.97834 17.8548 5.30803 16.6678 4.71674C18.3338 4.90174 19.3568 4.30345 20.9337 4.89644C20.9967 4.07685 20.2467 3.82055 20.0117 2.99996ZM26.1367 12.4258C25.7217 12.4138 25.8587 12.5858 26.4427 13.1908C27.2607 14.0388 27.7457 14.8448 28.1046 15.9548C28.3686 16.7698 28.4236 17.0308 28.3316 17.0308C28.3076 17.0308 28.0456 16.8158 27.7517 16.5528C26.2827 15.2378 24.8387 14.4108 23.2007 13.9448C22.9547 13.8748 22.7177 13.8398 22.6737 13.8668C22.6247 13.8978 22.6667 14.0398 22.7827 14.2418C23.0837 14.7628 23.2197 15.3508 23.2187 16.1268C23.2167 17.1418 23.1877 17.1588 22.5037 16.5508C20.9577 15.1758 19.5818 14.3298 17.9608 13.7578C16.9858 13.4138 16.8958 13.4258 16.5608 13.9318C15.7588 15.1378 15.2598 16.7138 15.2478 18.0758L15.2418 18.5548L15.0718 18.3198C15.0638 18.3078 15.0288 18.2738 15.0178 18.2598C13.2388 17.8708 14.1508 19.9708 15.1048 21.3497C15.3868 21.6317 15.4778 21.7907 15.6558 22.3277C16.6328 25.2717 18.4218 27.6467 20.6557 28.9646C22.5777 29.9566 24.6487 30.2366 27.2727 28.9686C29.7796 27.6217 31.1126 25.2017 32.2246 22.6147C32.5276 21.7757 32.5976 21.6437 32.9686 21.2437C33.4346 20.7407 33.6536 20.2907 33.9116 19.3028C34.0566 18.3948 34.3496 17.8788 33.1446 18.2638C33.0526 18.4368 32.9516 18.6058 32.9176 18.6268C32.8776 18.6508 32.8216 18.3838 32.7926 18.0268C32.7006 16.9068 32.5196 15.9138 32.3766 15.7538C32.3026 15.6708 31.8566 15.2708 31.3846 14.8628C29.5776 13.3038 28.4186 12.7118 26.7397 12.4878C26.4747 12.4528 26.2747 12.4298 26.1367 12.4258ZM20.3067 17.9358C20.5862 17.9361 20.8541 18.0472 21.0517 18.2448C21.2493 18.4424 21.3604 18.7103 21.3607 18.9898C21.3607 19.2694 21.2497 19.5376 21.0521 19.7354C20.8544 19.9332 20.5864 20.0445 20.3067 20.0447C20.168 20.045 20.0306 20.0179 19.9024 19.965C19.7742 19.9121 19.6577 19.8344 19.5595 19.7364C19.4613 19.6384 19.3834 19.5221 19.3303 19.3939C19.2771 19.2658 19.2498 19.1285 19.2498 18.9898C19.2499 18.8511 19.2774 18.7139 19.3306 18.5859C19.3838 18.4579 19.4617 18.3416 19.5598 18.2437C19.658 18.1459 19.7745 18.0683 19.9027 18.0154C20.0308 17.9626 20.1681 17.9355 20.3067 17.9358ZM27.7477 18.1148C28.0274 18.1148 28.2958 18.226 28.4936 18.4238C28.6915 18.6216 28.8026 18.89 28.8026 19.1698C28.8026 19.4496 28.6915 19.7179 28.4936 19.9157C28.2958 20.1136 28.0274 20.2247 27.7477 20.2247C27.4679 20.2247 27.1995 20.1136 27.0017 19.9157C26.8039 19.7179 26.6927 19.4496 26.6927 19.1698C26.6927 18.89 26.8039 18.6216 27.0017 18.4238C27.1995 18.226 27.4679 18.1148 27.7477 18.1148ZM20.5387 25.5917C22.5327 26.4337 24.7847 26.6187 27.5157 25.5917C27.4837 26.7677 25.9327 27.7117 24.0287 27.7127C22.1237 27.7127 20.5707 26.7687 20.5387 25.5917ZM3.99995 34.0156H43.9974V44.0154H3.99995V34.0156ZM13.4468 35.3456C12.6718 35.3456 12.0778 35.6026 11.6639 36.1165C11.2539 36.6315 11.0489 37.3855 11.0489 38.3785V39.6885C11.0589 40.6435 11.2689 41.3745 11.6799 41.8865C12.0898 42.3975 12.6818 42.6535 13.4568 42.6535C14.2418 42.6535 14.8388 42.3935 15.2458 41.8725C15.6528 41.3515 15.8548 40.5985 15.8548 39.6145V38.3065C15.8458 37.3515 15.6368 36.6205 15.2268 36.1125C14.8158 35.6016 14.2218 35.3456 13.4468 35.3456ZM8.60149 35.4336L5.65613 36.4875V37.6365L7.34171 37.1145V42.5565H8.75379V35.4336H8.60149ZM23.9793 35.4336L21.0343 36.4875V37.6365L22.7203 37.1145V42.5565H24.1303V35.4336H23.9793ZM27.0673 35.4426L26.6573 39.0585L27.7803 39.3375L27.9173 39.2105C28.1252 39.0345 28.3982 38.9445 28.7332 38.9445C29.0982 38.9445 29.3782 39.0545 29.5772 39.2695C29.7762 39.4835 29.8762 39.7925 29.8762 40.1965C29.8762 40.6165 29.7892 40.9425 29.6162 41.1735C29.4442 41.4015 29.1992 41.5155 28.8802 41.5155C28.5932 41.5155 28.3602 41.4335 28.1812 41.2705C28.0052 41.1045 27.9013 40.8735 27.8723 40.5775H26.4763C26.4893 40.9815 26.6023 41.3415 26.8133 41.6575C27.0283 41.9735 27.3183 42.2185 27.6873 42.3945C28.0552 42.5665 28.4542 42.6535 28.8842 42.6535C29.3762 42.6535 29.8022 42.5535 30.1632 42.3545C30.5252 42.1535 30.8032 41.8725 30.9952 41.5115C31.1902 41.1465 31.2882 40.7345 31.2882 40.2745C31.2882 39.5195 31.0962 38.9315 30.7122 38.5115C30.3282 38.0915 29.7962 37.8805 29.1182 37.8805C28.7402 37.8805 28.3832 37.9705 28.0482 38.1495L28.2242 36.6205H31.0542V35.4426H27.0673ZM31.7182 35.4426L34.0522 39.9765V42.5565H35.5422V39.9765L37.8781 35.4426H36.2741L34.7962 38.6475L33.3252 35.4426H31.7182ZM13.4464 36.4875C13.7884 36.4875 14.0414 36.6235 14.2004 36.8945C14.3634 37.1615 14.4444 37.5895 14.4444 38.1795V39.8685C14.4384 40.4255 14.3574 40.8385 14.2044 41.1085C14.0514 41.3795 13.8014 41.5155 13.4564 41.5155C13.1084 41.5155 12.8544 41.3755 12.6944 41.0955C12.5384 40.8115 12.4604 40.3795 12.4604 39.8005V38.0715C12.4704 37.5275 12.5544 37.1285 12.7104 36.8745C12.8704 36.6175 13.1144 36.4875 13.4464 36.4875ZM40.1791 37.1735C39.5501 37.1735 39.0401 37.3305 38.6491 37.6455C38.2621 37.9585 38.0671 38.3485 38.0671 38.8175C38.0671 39.6225 38.6971 40.1575 39.9541 40.4215C40.3321 40.4995 40.6051 40.5875 40.7741 40.6885C40.9471 40.7865 41.0341 40.9225 41.0341 41.0955C41.0341 41.2615 40.9631 41.3975 40.8231 41.5015C40.6861 41.6025 40.4821 41.6515 40.2121 41.6515C39.9221 41.6515 39.6911 41.5865 39.5191 41.4525C39.3461 41.3195 39.2541 41.1255 39.2411 40.8745H37.9011C37.9011 41.1935 37.9991 41.4925 38.1941 41.7695C38.3901 42.0425 38.6591 42.2595 39.0011 42.4195C39.3461 42.5755 39.7401 42.6535 40.1831 42.6535C40.8371 42.6535 41.3731 42.5045 41.7861 42.2085C42.2001 41.9085 42.4051 41.5185 42.4051 41.0365C42.4051 40.3625 42.0341 39.8885 41.2881 39.6145C41.0471 39.5265 40.7491 39.4485 40.3971 39.3805C40.0461 39.3085 39.7951 39.2245 39.6451 39.1305C39.4991 39.0325 39.4271 38.9055 39.4271 38.7495C39.4271 38.5835 39.4921 38.4465 39.6221 38.3395C39.7521 38.2315 39.9351 38.1795 40.1731 38.1795C40.4501 38.1795 40.6541 38.2445 40.7841 38.3785C40.9141 38.5085 40.9791 38.6745 40.9791 38.8765H42.3921C42.3921 38.3715 42.1901 37.9615 41.7861 37.6455C41.3861 37.3305 40.8501 37.1735 40.1791 37.1735ZM16.8664 38.9405V40.0795H19.6164V38.9405H16.8664Z" fill="#333333"/>
</svg>

<?xml version="1.0" encoding="UTF-8" standalone="no"?>
<!-- Created with Inkscape (http://www.inkscape.org/) -->
<svg id="svg8" xmlns:rdf="http://www.w3.org/1999/02/22-rdf-syntax-ns#" xmlns="http://www.w3.org/2000/svg" height="48" viewBox="0 0 12.7 12.7" width="48" version="1.1" xmlns:cc="http://creativecommons.org/ns#" xmlns:dc="http://purl.org/dc/elements/1.1/">
 <title id="title4753">UIO-icon</title>
 <metadata id="metadata5">
  <rdf:RDF>
   <cc:Work rdf:about="">
    <dc:format>image/svg+xml</dc:format>
    <dc:type rdf:resource="http://purl.org/dc/dcmitype/StillImage"/>
    <dc:title>UIO-icon</dc:title>
    <dc:creator>
     <cc:Agent>
      <dc:title>Joaquín Urbano</dc:title>
     </cc:Agent>
    </dc:creator>
    <dc:rights>
     <cc:Agent>
      <dc:title>GPL</dc:title>
     </cc:Agent>
    </dc:rights>
   </cc:Work>
  </rdf:RDF>
 </metadata>
 <path id="rect890" d="m0 0v48h48v-48h-48zm20.012 3c0.574 0.6541 1.897 0.2815 2.259 1.0352 2.338-1.7182 2.17-0.1207 4.608-0.9063-2.067 1.0401-2.432 0.6619-3.576 1.6914 0.047-0.0008 0.096 0.0007 0.144 0 0.156-0.0035 0.309-0.011 0.465-0.0117 0.294-0.0014 0.586 0.0071 0.877 0.0156 0.398 0.0068 0.626 0.0233 0.875 0.043 0.879 0.059 1.692 0.1613 2.307 0.3183 1.892 0.484 3.342 1.3492 4.33 2.584 0.604 0.7553 0.892 1.2755 1.217 2.2012 0.766 2.8703 0.402 4.2593 0.709 7.1073 0.488-0.106 0.532-0.101 0.748 0.084 0.207 0.179 0.224 0.239 0.255 0.889 0.028 0.571-0.001 0.83-0.164 1.439-0.288 1.083-0.532 1.577-1.052 2.127-0.415 0.438-0.494 0.581-0.832 1.5-1.245 2.85-2.749 5.495-5.528 6.959-2.93 1.389-5.243 1.083-7.388-0.004-2.495-1.443-4.491-4.043-5.582-7.267-0.199-0.588-0.299-0.764-0.614-1.073-0.742-0.729-1.205-1.881-1.297-3.228-0.082-1.224 0.175-1.611 0.932-1.404l0.215 0.058c-0.01-1.691-0.002-3.384 0.084-5.072 0.391-3.5066 2.296-5.7871 5.619-6.7755-0.953-0.3321-1.768-0.0024-2.955-0.5937 1.666 0.185 2.689-0.4133 4.266 0.1797 0.063-0.8196-0.687-1.0759-0.922-1.8965zm6.125 9.426c-0.415-0.012-0.278 0.16 0.306 0.765 0.818 0.848 1.303 1.654 1.662 2.764 0.264 0.815 0.319 1.076 0.227 1.076-0.024 0-0.286-0.215-0.58-0.478-1.469-1.315-2.913-2.142-4.551-2.608-0.246-0.07-0.483-0.105-0.527-0.078-0.049 0.031-0.007 0.173 0.109 0.375 0.301 0.521 0.437 1.109 0.436 1.885-0.002 1.015-0.031 1.032-0.715 0.424-1.546-1.375-2.922-2.221-4.543-2.793-0.975-0.344-1.065-0.332-1.4 0.174-0.802 1.206-1.301 2.782-1.313 4.144l-0.006 0.479-0.17-0.235c-0.008-0.012-0.043-0.046-0.054-0.06-1.779-0.389-0.867 1.711 0.087 3.09 0.282 0.282 0.373 0.441 0.551 0.978 0.977 2.944 2.766 5.319 5 6.637 1.922 0.992 3.993 1.272 6.617 0.004 2.507-1.347 3.84-3.767 4.952-6.354 0.303-0.839 0.373-0.971 0.744-1.371 0.466-0.503 0.685-0.953 0.943-1.941 0.145-0.908 0.438-1.424-0.767-1.039-0.092 0.173-0.193 0.342-0.227 0.363-0.04 0.024-0.096-0.243-0.125-0.6-0.092-1.12-0.273-2.113-0.416-2.273-0.074-0.083-0.52-0.483-0.992-0.891-1.807-1.559-2.966-2.151-4.645-2.375-0.265-0.035-0.465-0.058-0.603-0.062zm-5.83 5.51a1.0551 1.0551 0 0 1 1.054 1.054 1.0551 1.0551 0 0 1 -1.054 1.055 1.0551 1.0551 0 0 1 -1.057 -1.055 1.0551 1.0551 0 0 1 1.057 -1.054zm7.441 0.179a1.0551 1.0551 0 0 1 1.055 1.055 1.0551 1.0551 0 0 1 -1.055 1.055 1.0551 1.0551 0 0 1 -1.055 -1.055 1.0551 1.0551 0 0 1 1.055 -1.055zm-7.209 7.477c1.994 0.842 4.246 1.027 6.977 0-0.032 1.176-1.583 2.12-3.487 2.121-1.905 0-3.458-0.944-3.49-2.121zm-16.539 8.424h39.998v10h-39.998v-10zm9.447 1.33c-0.775 0-1.369 0.257-1.783 0.771-0.41 0.515-0.615 1.269-0.615 2.262v1.31c0.01 0.955 0.22 1.686 0.631 2.198 0.41 0.511 1.002 0.767 1.777 0.767 0.785 0 1.382-0.26 1.789-0.781s0.609-1.274 0.609-2.258v-1.308c-0.009-0.955-0.218-1.686-0.628-2.194-0.411-0.511-1.005-0.767-1.78-0.767zm-4.8454 0.088l-2.9454 1.054v1.149l1.6856-0.522v5.442h1.4121v-7.123h-0.1523zm15.378 0l-2.945 1.054v1.149l1.686-0.522v5.442h1.41v-7.123h-0.151zm3.088 0.009l-0.41 3.616 1.123 0.279 0.137-0.127c0.208-0.176 0.481-0.266 0.816-0.266 0.365 0 0.645 0.11 0.844 0.325 0.199 0.214 0.299 0.523 0.299 0.927 0 0.42-0.087 0.746-0.26 0.977-0.172 0.228-0.417 0.342-0.736 0.342-0.287 0-0.52-0.082-0.699-0.245-0.176-0.166-0.28-0.397-0.309-0.693h-1.396c0.013 0.404 0.126 0.764 0.337 1.08 0.215 0.316 0.505 0.561 0.874 0.737 0.368 0.172 0.767 0.259 1.197 0.259 0.492 0 0.918-0.1 1.279-0.299 0.362-0.201 0.64-0.482 0.832-0.843 0.195-0.365 0.293-0.777 0.293-1.237 0-0.755-0.192-1.343-0.576-1.763s-0.916-0.631-1.594-0.631c-0.378 0-0.735 0.09-1.07 0.269l0.176-1.529h2.83v-1.178h-3.987zm4.651 0l2.334 4.534v2.58h1.49v-2.58l2.336-4.534h-1.604l-1.478 3.205-1.471-3.205h-1.607zm-18.272 1.045c0.342 0 0.595 0.136 0.754 0.407 0.163 0.267 0.244 0.695 0.244 1.285v1.689c-0.006 0.557-0.087 0.97-0.24 1.24-0.153 0.271-0.403 0.407-0.748 0.407-0.348 0-0.602-0.14-0.762-0.42-0.156-0.284-0.234-0.716-0.234-1.295v-1.729c0.01-0.544 0.094-0.943 0.25-1.197 0.16-0.257 0.404-0.387 0.736-0.387zm26.733 0.686c-0.629 0-1.139 0.157-1.53 0.472-0.387 0.313-0.582 0.703-0.582 1.172 0 0.805 0.63 1.34 1.887 1.604 0.378 0.078 0.651 0.166 0.82 0.267 0.173 0.098 0.26 0.234 0.26 0.407 0 0.166-0.071 0.302-0.211 0.406-0.137 0.101-0.341 0.15-0.611 0.15-0.29 0-0.521-0.065-0.693-0.199-0.173-0.133-0.265-0.327-0.278-0.578h-1.34c0 0.319 0.098 0.618 0.293 0.895 0.196 0.273 0.465 0.49 0.807 0.65 0.345 0.156 0.739 0.234 1.182 0.234 0.654 0 1.19-0.149 1.603-0.445 0.414-0.3 0.619-0.69 0.619-1.172 0-0.674-0.371-1.148-1.117-1.422-0.241-0.088-0.539-0.166-0.891-0.234-0.351-0.072-0.602-0.156-0.752-0.25-0.146-0.098-0.218-0.225-0.218-0.381 0-0.166 0.065-0.303 0.195-0.41 0.13-0.108 0.313-0.16 0.551-0.16 0.277 0 0.481 0.065 0.611 0.199 0.13 0.13 0.195 0.296 0.195 0.498h1.413c0-0.505-0.202-0.915-0.606-1.231-0.4-0.315-0.936-0.472-1.607-0.472zm-23.313 1.767v1.139h2.75v-1.139h-2.75z" fill-rule="evenodd" transform="scale(.26458)" fill="#333"/>
</svg>
